!!!OTL: HERZIG LIEB SCHAETZELE
!!!ARE: Europa, Mitteleuropa, Deutschland, Sueddeutschland
!!!SCT: E0540
!!!YEM: Copyright 1995, estate of Helmut Schaffrath.
**kern
*ICvox
*Ivox
*M3/8
*k[f#]
*G:
=1
{8g
16g
16a
16b
16cc
=2
8dd
16dd
16ee
8dd
=3
8cc
8b
8cc
=4
4b
8r}
=5
{8g
16g
16a
16b
16cc
=6
8dd
16dd
16ee
8dd
=7
8cc
8b
8cc
=8
4b
8r}
=9
{8dd
16dd
16ee
8dd
=10
8cc
16cc
16dd
8cc
=11
8b
16b
16cc
8b
=12
8a
8a
8a}
=13
{8g
16g
16a
16b
16cc
=14
8dd
16dd
16ee
8dd
=15
8cc
8b
8cc
=16
4b
8r}
==
!!!AGN: Liebes - Lied
!!!ONB: ESAC (Essen Associative Code) Database: ERK1
!!!AMT: simple triple
!!!AIN: vox
!!!EED: Helmut Schaffrath
!!!EEV: 1.0
*-
